icons/chipB.svg

<svg width="24" height="24" viewBox="0 0 24 24" fill="none" xmlns="http://www.w3.org/2000/svg">
<path d="M6 15V9C6 7.3 7.3 6 9 6H15C16.7 6 18 7.3 18 9V15C18 16.7 16.7 18 15 18H9C7.3 18 6 16.6 6 15Z" fill="black"/>
<path fill-rule="evenodd" clip-rule="evenodd" d="M9 6.75C7.71421 6.75 6.75 7.71421 6.75 9V15C6.75 16.2021 7.73037 17.25 9 17.25H15C16.2858 17.25 17.25 16.2858 17.25 15V9C17.25 7.71421 16.2858 6.75 15 6.75H9ZM5.25 9C5.25 6.88579 6.88579 5.25 9 5.25H15C17.1142 5.25 18.75 6.88579 18.75 9V15C18.75 17.1142 17.1142 18.75 15 18.75H9C6.86963 18.75 5.25 16.9979 5.25 15V9Z" fill="black"/>
<path fill-rule="evenodd" clip-rule="evenodd" d="M10 17.25C10.4142 17.25 10.75 17.5858 10.75 18V20.5C10.75 20.9142 10.4142 21.25 10 21.25C9.58579 21.25 9.25 20.9142 9.25 20.5V18C9.25 17.5858 9.58579 17.25 10 17.25Z" fill="black"/>
<path fill-rule="evenodd" clip-rule="evenodd" d="M10 2.75C10.4142 2.75 10.75 3.08579 10.75 3.5V6C10.75 6.41421 10.4142 6.75 10 6.75C9.58579 6.75 9.25 6.41421 9.25 6V3.5C9.25 3.08579 9.58579 2.75 10 2.75Z" fill="black"/>
<path fill-rule="evenodd" clip-rule="evenodd" d="M14 17.25C14.4142 17.25 14.75 17.5858 14.75 18V20.5C14.75 20.9142 14.4142 21.25 14 21.25C13.5858 21.25 13.25 20.9142 13.25 20.5V18C13.25 17.5858 13.5858 17.25 14 17.25Z" fill="black"/>
<path fill-rule="evenodd" clip-rule="evenodd" d="M14 2.75C14.4142 2.75 14.75 3.08579 14.75 3.5V6C14.75 6.41421 14.4142 6.75 14 6.75C13.5858 6.75 13.25 6.41421 13.25 6V3.5C13.25 3.08579 13.5858 2.75 14 2.75Z" fill="black"/>
<path fill-rule="evenodd" clip-rule="evenodd" d="M2.75 10C2.75 9.58579 3.08579 9.25 3.5 9.25H6C6.41421 9.25 6.75 9.58579 6.75 10C6.75 10.4142 6.41421 10.75 6 10.75H3.5C3.08579 10.75 2.75 10.4142 2.75 10Z" fill="black"/>
<path fill-rule="evenodd" clip-rule="evenodd" d="M17.25 10C17.25 9.58579 17.5858 9.25 18 9.25H20.5C20.9142 9.25 21.25 9.58579 21.25 10C21.25 10.4142 20.9142 10.75 20.5 10.75H18C17.5858 10.75 17.25 10.4142 17.25 10Z" fill="black"/>
<path fill-rule="evenodd" clip-rule="evenodd" d="M2.75 14C2.75 13.5858 3.08579 13.25 3.5 13.25H6C6.41421 13.25 6.75 13.5858 6.75 14C6.75 14.4142 6.41421 14.75 6 14.75H3.5C3.08579 14.75 2.75 14.4142 2.75 14Z" fill="black"/>
<path fill-rule="evenodd" clip-rule="evenodd" d="M17.25 14C17.25 13.5858 17.5858 13.25 18 13.25H20.5C20.9142 13.25 21.25 13.5858 21.25 14C21.25 14.4142 20.9142 14.75 20.5 14.75H18C17.5858 14.75 17.25 14.4142 17.25 14Z" fill="black"/>
</svg>

<svg xmlns="http://www.w3.org/2000/svg" fill="none" viewBox="0 0 24 24">
  <path fill="#000" d="M6 15V9c0-1.7 1.3-3 3-3h6c1.7 0 3 1.3 3 3v6c0 1.7-1.3 3-3 3H9c-1.7 0-3-1.4-3-3Z"/>
  <path fill="#000" fill-rule="evenodd" d="M9 6.75c-1.286 0-2.25.964-2.25 2.25v6c0 1.202.98 2.25 2.25 2.25h6c1.286 0 2.25-.964 2.25-2.25V9c0-1.286-.964-2.25-2.25-2.25H9ZM5.25 9c0-2.114 1.636-3.75 3.75-3.75h6c2.114 0 3.75 1.636 3.75 3.75v6c0 2.114-1.636 3.75-3.75 3.75H9c-2.13 0-3.75-1.752-3.75-3.75V9Z" clip-rule="evenodd"/>
  <path fill="#000" fill-rule="evenodd" d="M10 17.25a.75.75 0 0 1 .75.75v2.5a.75.75 0 0 1-1.5 0V18a.75.75 0 0 1 .75-.75Zm0-14.5a.75.75 0 0 1 .75.75V6a.75.75 0 0 1-1.5 0V3.5a.75.75 0 0 1 .75-.75Zm4 14.5a.75.75 0 0 1 .75.75v2.5a.75.75 0 0 1-1.5 0V18a.75.75 0 0 1 .75-.75Zm0-14.5a.75.75 0 0 1 .75.75V6a.75.75 0 0 1-1.5 0V3.5a.75.75 0 0 1 .75-.75ZM2.75 10a.75.75 0 0 1 .75-.75H6a.75.75 0 0 1 0 1.5H3.5a.75.75 0 0 1-.75-.75Zm14.5 0a.75.75 0 0 1 .75-.75h2.5a.75.75 0 0 1 0 1.5H18a.75.75 0 0 1-.75-.75Zm-14.5 4a.75.75 0 0 1 .75-.75H6a.75.75 0 0 1 0 1.5H3.5a.75.75 0 0 1-.75-.75Zm14.5 0a.75.75 0 0 1 .75-.75h2.5a.75.75 0 0 1 0 1.5H18a.75.75 0 0 1-.75-.75Z" clip-rule="evenodd"/>
</svg>
